X:1
T:Title
%%score ( 1 2 ) { 3 | 4 }
L:1/8
Q:1/4=97
M:4/4
K:Db
V:1 treble nm="Grand Piano, Soprano"
V:2 treble 
V:3 treble nm="Choir Pad, Living in the Sunshine Butler"
V:4 bass 
V:1
 [DF]>[EG] [FA]>[GB] [FA]>[DF] [FA]>[Fd] | [Gd]2 [Gc]2 [Gc]4 | %2
w: By~A.~H.~Butler * * * * * * *||
 [CE]>[DF] [EG]>[FA] [Gc]>[GB] [FA]>[EG] | [DF]2 [GB]2 [FA]4 | %4
w: ||
 [DF]>[EG] [FA]>[GB] [FA]>[DF] [Fd]>[Ac] | [Ge]2 [Bd]2 [Ac]2 [GB]2 | %6
w: ||
 [FA]>[FA] [Ad]>[Ae] [Af]>[Ad] [GB]>[Ge] | [Fd]2 c-[Gc] [Fd]4 | [FA]4 [Fd]4 | [Gd]4 [GB]4 | %10
w: ||||
 [FA]>[FA] [GB]>[GB] [FA]2 [DF]2 | [CE]2 [DF]2 [EG]2 [GB]2 | [FA]4 [Fd]4 | [Ge]4 [GB]4 | %14
w: ||||
 [FA]>[FA] [GB]>[GB] [FA]2 [Ad]2 | [Af]2 [Ae]2 [Fd]4- | [Fd]4 z4 |] %17
w: |||
V:2
 x8 | x8 | x8 | x8 | x8 | x8 | x8 | z2 .E2 z4 | x8 | x8 | x8 | x8 | x8 | x8 | x8 | x8 | x8 |] %17
V:3
 A,>A, D>D D>[K:bass]A, D>A, | A,2 A,2 A,4 | A,>A, A,>[K:treble]D E>C D>A, | A,2 D2 D4 | %4
 A,>A, D>D D>[K:bass]A, A,>A, | B,2 D2[K:treble] D4 | D>D D>C D>D D>[K:bass]B, | A,2 A,2 F,4 | %8
 D>[K:treble]D D>D A,2 A,2 | B,>B, B,>B, D2[K:treble] D2 | D>D D>D D2[K:bass] A,2 | %11
 A,>A, A,>A,[K:treble] C4 | D>D D>D[K:bass] A,2 A,2 | B,>B, B,>B,[K:treble] D2 D2 | D>D D>D D2 D2 | %15
 D2 C2 D4- | D4 z4 |] %17
V:4
 D,>D, D,>D, D,>D, D,>D, | E,2 E,2 E,4 | z2 z z/ A,/ A,,>A,, B,,>C, | D,2 D,2 D,4 | %4
 D,>D, D,>D, D,>D, D,>F, | G,2 G,2 G,4 | D,>D, F,>E, D,>F, G,>G, | z2 A,,2 D,4 | %8
 D,>D, D,>D, D,2 D,2 | G,>G, G,>G, G,2 G,2 | D,>D, D,>D, D,2 D,2 | A,,>A,, A,,>A,, A,,4 | %12
 D,>D, D,>D, D,2 D,2 | G,>G, G,>G, G,2 G,2 | D,>D, D,>D, D,2 F,2 | A,2 A,2 D,4- | D,4 z4 |] %17

